X:1
T: City of Star (My A') 
C: Diego E. 
L:1/8     
M:4/4
Q:1/4=100
K:C 
"Dm" D1E1F1A1- A1 z1 A1A1|"Bm" z2 G1A1 c1B1A1B1|"Am"E4 z2 z1 D1 |E2 z6|  
"Dm" D1E1F1A1- A1 z1 A1A1|"Bm" z2 A1E1 A1E1D1E1|"C"z1 E3 z2 G1D1|E2 z4 z1E1|
"Dm"     F2 z1 E1F2 z1 E1|"Bm" F2 z1 E1F2 z1 D1|"Am" E2 z1 D1E2 z1D1|E2 z4 e2|]
